X:1
T:Vals efter J J Bruun
C:Johan Jacob Bruun
R:Vals
Z:Patrik Månsson, 2008-10-06
O:Skåne
M:3/4
L:1/8
K:G
|: d2 (dB) (cA) | B2 (BG) EF | G2 G2 A2 | B^A Bc B2 |
d2 dB cA | B2 BG EF | G2 GA FG | [EG,]4 z2 :|
|: F2 FG AF | G2 FE ^DE | F2 FG AF | G2 FE =D2 |
d2 dB cA | B2 BG EF | G2 GA FG | E4 z2 :|

